X: 1
T: Miss Susan Cooper
C: Ronnie Cooper (1934-1982)
R: reel
Z: 1997 by John Chambers <jc:trillian.mit.edu>
M: C|
L: 1/8
K: D
   (3ABc \
| "D"dfed "G"B2dB | "D"A2FA DAFA | "D"ABde "Bm"fa^ga | "G"=g2fd "A7"eAce |
| "D"dfed "G"B2dB | "D"A2FA DAFA | "D"ABde fafd | "A7"eAce "D"d2 :|
|: dc \
| "Bm"Bcde fB~B2 | def^g "E7"a2gf | "A"eAce a2^ga | "Bm"=g2fd "A7"eAce |
| "D"dfed "G"B2dB | "D"A2FA DAFA | "D"ABde fafd | "A7"eAce "D"d2 :|
